!!!OTL: Maighre an chúil &oacute;rbhui, S. 72
!!!id: I0520
**kern
*clefG2
*k[f#]
*e:
{8B
8d
=1
4e
4e
8d
8B
=2
4g
4a
8g
8a
=3
8b
8cc
8b
8a
8f#
8g
=4
4e
4e}
=5
{8B
8d
=6
4e
4e
8d
8B
=7
4g
4a
8g
8a
=8
8b
8cc
8b
8a
8f#
8g
=9
4e
4e}
=10
{8b
8dd
=11
8ee
8ee
8ee
8dd
8b
8cc#
=12
4dd
8ee
8dd
8b
8a
=13
8f#
8f#
4.e
8f#
=14
4e
4d}
=15
{8B
8d
=16
4e
4e
8d
8B
=17
4g
4a
8g
8a
=18
8b
8cc
8b
8a
8f#
8g
=19
4e
4e}
==
*-
!!!minrhy: 8
!!!meters: 3/4 ]  ZZ[4
!!!cut: Maighre an chúil &oacute;rbhui, S. 72
!!!reg: Irland
!!!trd: O BOYLE, Sean: 25 Irish Folksongs, Dublin 1976
!!!rhy1: XX  X_X_XX  X_X_XX  XXXXXX  X_X_
!!!rhy2: XX  X_X_XX  X_X_XX  XXXXXX  X_X_
!!!key: I0520  08  E 3/4 ]  ZZ[4
!!!mod: ACHTTONSKALA MELODISCH MOLL OHNE 7]  AMBITUS[11
!!!kad: 11-7b1
!!!akz: 13b51_13b51_+17b21_13b51_
!!!fot: 'a__a__b__a__
!!!for: 'a__a__b__a__
!!!fok: 'Ma_Ma_Md_Ma_
!! PHRAS[AUFTAKTIG]
!!!fkt: ???
!!!bem: Verzierungen weggelassen
!! IRISCHE VKL.
!! PR[11] 2K[9] 2G[28] 3K[6] 3G[2] 4A[5] 4Ü[0] 5A[0] 6K[0] 6G[0]
!! 7K[0] 7G[0] 8A[0] MEHR[0] SI[51] ABS[97] SR[37] SP[13]
!! ST[16] 2k[5] 2g[15] 3k[6] 3g[6] 4d[1] 4ü[0] 5d[0] 6k[4] 6g[0]
!! 7k[0] 7g[0] 8d[0] mehr[0] si[38] dm[+13] sr[21] sp[18]
!! 1F[2] 2F[39] 3F[40] 4F[6] LF[0] 2P[0] 3P[9] 4P[4] TRI[4] DF[6] AB[98]
!! TF[0] U3K[0] U3[0] U4[0] U4Ü[0] U5[0] U6K[0] U6[0] U7K[0] U7[0]
!! N1[13] N2K[0] N2[8] N3K[0] N3[18] N4[2] N4Ü[0] N5[14] N6K[0] N6[14]
!!!n7k: 0] N7[11] O1[16] O2K[0] O2[2] O3K[0] O3[0] HÖ[0
!!!RNB: symbol: &oacute;= o acute  (UTF-8: Ã³)
